X:1
T:Voce Dei
T:Daniel Friderici
T:Source : Bicinia sacra---Rostock---J.Richelius---1642. Editor : André Vierendeels (05/07/17).
T:Notes : Original clefs : C1, C1 Editorial accidentals above the staff m 35 in S 2 : second "G" notated as quarter in original print 
T:Voce Dei
T:©
T:©
T:©
C:Daniel Friderici
Z:©
%%score [ 1 2 ]
L:1/8
Q:1/4=124
M:2/2
K:F
V:1 treble nm="Soprano 1" snm="S 1"
V:2 treble nm="Soprano 2" snm="S 2"
V:1
 c6 B2 | A2 G2 F2 E2 | F2 G2 A2 B2 | c4 F4 | f2 e2 d2 c2 | B2 A2 B2 c2 | d2 e2 f2 e2 | %7
w: Vo- *|||* ce,|vo- * * *|||
 d2 c2 B2 A2 | B2 A2 G2 F2 | G8 | C4 F4 | F2 G4 A2 | B8 | A2 AA B2 c2 | d4 d2 e2 | f2 ed e2 dc | %16
w: |||ce, vo-|ce De- i|vic-|tus sty- gi- us ten-|ta- tor a-|bi- * * * * *|
 d2 c2 z2 c2 | d2 _e2 d4 | c8 :: A8 | z8 | A4 z2 A2 | B2 A2 z2 c2 | d2 c2 z2 e2 | f2 e2 z2 A2 | %25
w: * bat, a-|bi- * *|bat:|Qui,||qui, qui|pu- gnat, qui|pu- gnat, qui|pu- gnat, qui|
 =B2 c2 d4 | e2 f3 e d2- | dc c4 =B2 | c4 d4- | d4 c4 | B6 A2 | G2 F2 G4 | F8 | z8 | z4 d4- | %35
w: pu- gnat ver-|bi Nu- * *|* * * mi-|ne, vic-|* tor|e- *||rit,||vic-|
 d4 c4 | B6 A2 | G2 F2 G2 F2 | E4 D4 | E4 F4 | G8 | F8 :| %42
w: * tor|e- *|||||rit.|
V:2
 z4 c4- | c2 B2 A2 G2 | F2 E2 F2 G2 | A2 B2 c4 | F4 f2 e2 | d2 c2 B2 A2 | B2 c2 d2 e2 | f2 e2 d4- | %8
w: Vo-||||ce, vo- *||||
 d2 c2 c4- | c2 =BA B4 | c4 A4 | A2 B4 c2 | d8 | c2 cc d2 e2 | f4 f2 e2 | d2 cB A2 BA | %16
w: ||ce, vo-|ce De- i|vic-|tus, sty- gi- us ten-|ta- tor a-|bi- * * * * *|
 G2 A2 z2 A2 | =B2 c3 B/A/ B2 | c8 :: z8 | A8 | z4 A4 | z2 A2 B2 A2 | z2 c2 d2 c2 | z2 e2 f2 e2 | %25
w: * bat, a-|bi- * * * *|bat:||Qui,|qui,|qui pu- gnat,|qui pu- gnat,|qui pu- gnat|
 d2 c2 =B3 B | c2 d3 e f2 | e4 d2 d2 | c4 z4 | z8 | z8 | z4 d4- | d4 c4 | B6 A2 | G2 F2 G4 | F8 | %36
w: ver- bi Nu- mi-|ne, ver- * *|bi Nu- mi-|ne,|||vic-|* tor|e- *||rit,|
 z8 | C2 D2 E2 F2 | G4 A4 | G2 F2 F4- | F2 ED E4 | F8 :| %42
w: |e- * * *||||rit.|

